img/logo-htmlacademy.svg

<svg width="115" height="41" viewBox="0 0 115 41" fill="none" xmlns="http://www.w3.org/2000/svg">
<path fill-rule="evenodd" clip-rule="evenodd" d="M15.5197 1.05737H15.3509L0 2.71895V31.4945L15.3509 40.8382L30.7018 31.4945V2.71895L15.5197 1.05737ZM77.0183 2.62185H75.0876V15.7311H77.0183V2.62185ZM40.8619 2.63264V7.76843C41.6131 6.9864 42.6386 6.5436 43.7105 6.53843C44.6823 6.47908 45.6329 6.84495 46.3253 7.54479C47.0177 8.24462 47.3866 9.21244 47.3399 10.2068V15.7634H45.367V10.4658C45.4231 9.94897 45.2754 9.43059 44.9566 9.02553C44.6377 8.62047 44.174 8.36218 43.6683 8.3079H43.3518C42.3456 8.36979 41.4321 8.9295 40.9041 9.80764V15.7634H38.8995V2.63264H40.8619ZM77.0183 31.4837H75.2775V30.0595C74.4828 31.1353 73.23 31.7538 71.9119 31.7211C69.4751 31.5528 67.5825 29.4822 67.5825 26.9845C67.5825 24.4867 69.4751 22.4162 71.9119 22.2479C73.1195 22.2052 74.2818 22.7203 75.0771 23.6505V18.3205H77.0183V31.4837ZM47.0656 30.0595C47.263 30.0515 47.4583 30.0152 47.6459 29.9516V31.3866C47.2482 31.5404 46.826 31.6172 46.4009 31.6132C45.6482 31.6769 44.9394 31.2429 44.639 30.5342C43.7036 31.31 42.5302 31.7227 41.3261 31.6995C39.733 31.6995 38.256 30.804 38.256 28.9482C38.256 26.65 40.3661 25.9379 42.1702 25.9379C42.9402 25.9505 43.707 26.0408 44.4596 26.2076V25.884C44.4596 24.805 43.6578 23.9742 42.1491 23.9742C41.0585 23.9764 39.9804 24.2116 38.9839 24.6647V22.8305C40.0678 22.451 41.204 22.2506 42.3495 22.2371C44.8394 22.2371 46.3693 23.4455 46.3693 26.1753V29.4121C46.3546 29.5668 46.401 29.721 46.4981 29.8406C46.5951 29.9601 46.7349 30.035 46.8862 30.0487H47.0656V30.0595ZM40.2711 28.8403C40.298 29.229 40.4761 29.5905 40.7655 29.844C41.055 30.0974 41.4317 30.2217 41.8115 30.189H41.9275C42.8819 30.1906 43.7973 29.8022 44.4702 29.11V27.5779C43.842 27.4414 43.2026 27.3655 42.5605 27.3513C41.5055 27.3513 40.2817 27.7074 40.2817 28.8403H40.2711ZM56.0229 22.9384C55.1962 22.4632 54.2596 22.2246 53.3115 22.2479H52.9422C51.7332 22.2873 50.5891 22.8166 49.7619 23.7192C48.9347 24.6218 48.4923 25.8236 48.5321 27.06V27.5024C48.6957 30.0004 50.805 31.8921 53.2482 31.7318C54.2519 31.7555 55.2477 31.5452 56.1601 31.1168V29.2718C55.3769 29.7215 54.4945 29.9591 53.5963 29.9624C52.5199 30.0288 51.4963 29.4793 50.9385 28.5356C50.3806 27.5918 50.3806 26.4095 50.9385 25.4658C51.4963 24.522 52.5199 23.9725 53.5963 24.039C54.461 24.0357 55.3066 24.2989 56.0229 24.7942V22.9384ZM66.1514 30.0595C66.3488 30.0515 66.5441 30.0152 66.7317 29.9516V31.3866C66.334 31.5404 65.9118 31.6172 65.4867 31.6132C64.734 31.6769 64.0252 31.2429 63.7248 30.5342C62.7894 31.31 61.616 31.7227 60.4119 31.6995C58.8188 31.6995 57.3417 30.804 57.3417 28.9482C57.3417 26.65 59.4518 25.9379 61.256 25.9379C62.0259 25.9505 62.7928 26.0408 63.5454 26.2076V25.884C63.5454 24.805 62.7436 23.9742 61.2349 23.9742C60.1443 23.9764 59.0662 24.2116 58.0697 24.6647V22.8305C59.1536 22.451 60.2897 22.2506 61.4353 22.2371C63.9252 22.2371 65.455 23.4455 65.455 26.1753V29.4121C65.4404 29.5668 65.4868 29.721 65.5838 29.8406C65.6809 29.9601 65.8207 30.035 65.972 30.0487H66.1514V30.0595ZM59.855 29.8481C59.5632 29.5943 59.3837 29.2311 59.3569 28.8403H59.378C59.378 27.7074 60.5385 27.3513 61.6569 27.3513C62.299 27.3655 62.9383 27.4414 63.5665 27.5779V29.11C62.8937 29.8022 61.9782 30.1906 61.0239 30.189H60.9078C60.5263 30.2247 60.1469 30.1019 59.855 29.8481ZM69.3271 26.9305C69.3271 25.2859 70.6308 23.9526 72.239 23.9526L72.2601 24.0066C73.4742 24.0066 74.5742 24.7382 75.0665 25.8732V28.0311C74.5856 29.1871 73.4673 29.9296 72.239 29.9084C70.6308 29.9084 69.3271 28.5752 69.3271 26.9305ZM83.3486 22.2479C86.8408 22.2479 88.0541 25.1395 87.4844 27.7397H80.922C81.1436 29.3582 82.6839 30.0163 84.2876 30.0163C85.2509 30.0196 86.2027 29.8021 87.0729 29.3797V31.1061C86.0736 31.5421 84.9939 31.7519 83.9078 31.7211C81.2385 31.7211 78.8963 30.189 78.8963 26.9521C78.8362 25.7502 79.2482 24.5736 80.0408 23.6841C80.8334 22.7945 81.9408 22.2658 83.1165 22.2155H83.3486V22.2479ZM80.8693 26.1753C80.9704 24.8237 82.1216 23.8104 83.4436 23.9095H83.4858C84.1064 23.8531 84.7196 24.08 85.1612 24.5295C85.6028 24.979 85.8275 25.6051 85.7752 26.24H80.8693V26.1753ZM89.489 31.4621V22.4961H91.2298V23.575C91.9777 22.7197 93.041 22.2229 94.1628 22.2047C95.2951 22.1328 96.3712 22.7163 96.9482 23.7153C97.7407 22.8335 98.8477 22.3161 100.018 22.2803C100.952 22.2327 101.859 22.6011 102.507 23.2901C103.154 23.9792 103.478 24.9213 103.394 25.8732V31.4837H101.39V25.9271C101.437 25.4734 101.306 25.0191 101.024 24.6647C100.743 24.3104 100.336 24.0852 99.8917 24.039H99.6174C98.7512 24.0941 97.9525 24.536 97.4335 25.2474V31.4837H95.4289V25.9271C95.4728 25.47 95.3357 25.0139 95.0481 24.6611C94.7606 24.3082 94.3467 24.088 93.8991 24.0497H93.6881C92.7466 24.1344 91.8915 24.6449 91.3564 25.4416V31.5161H89.5312L89.489 31.4621ZM113.977 22.4745H111.972L109.324 29.2718L106.306 22.4853H104.196L108.417 31.5484L108.237 32.0016C107.72 33.3611 107.003 34.0516 106.053 34.0516C105.75 34.0548 105.447 34.0112 105.156 33.9221V35.6161C105.536 35.7125 105.926 35.7632 106.317 35.7671C107.646 35.7671 108.902 35.0226 109.851 32.6813L113.977 22.4745ZM52.689 6.78658V3.54974L50.7266 4.01369V6.73264H49.144V8.49132H50.7899V12.9905C50.7231 13.817 51.0244 14.6301 51.61 15.2038C52.1955 15.7775 53.0028 16.0505 53.8073 15.9468C54.5996 15.9535 55.3875 15.8259 56.139 15.5692V13.8429C55.5727 14.0781 54.9672 14.199 54.356 14.199C53.2165 14.199 52.689 13.8105 52.689 12.6237V8.5129H55.8541V6.78658H52.689ZM58.3862 15.7526V6.75421H60.1376V7.83316C60.8811 6.97655 61.9403 6.476 63.0601 6.45211C64.1624 6.38099 65.2146 6.93142 65.8032 7.88711C66.5958 7.00534 67.7028 6.48794 68.8734 6.45211C69.8138 6.41462 70.7233 6.79859 71.364 7.50353C72.0046 8.20846 72.3126 9.16418 72.2073 10.1205V15.7418H70.2028V10.1853C70.2499 9.73151 70.1184 9.27721 69.8373 8.92287C69.5561 8.56853 69.1485 8.34334 68.7046 8.29711H68.4619C67.5957 8.35228 66.797 8.7942 66.278 9.50553V15.7418H64.2734V10.1853C64.3206 9.73151 64.1891 9.27721 63.9079 8.92287C63.6268 8.56853 63.2191 8.34334 62.7752 8.29711H62.5326C61.5911 8.38181 60.736 8.89229 60.2009 9.68895V15.7634H58.3862V15.7526ZM28.6972 30.3033L28.7078 30.2968L28.6972 30.3184V30.3033ZM28.6972 18.3205V30.3033L15.3509 38.4321L2.00459 30.3184V18.5147L15.2876 26.6068V28.0311L6.18257 22.5284V23.9418L15.3404 29.5632V31.0629L6.19312 25.4955V26.9521L15.3509 32.5734L24.5826 26.9197V20.8129L28.6972 18.3205ZM28.7078 16.7776L25.0362 18.9355L23.3482 20.0145L15.3087 15.0837V16.4971L22.156 20.7266L22.0083 20.8237L20.9532 21.4063L15.2876 17.9537V19.3995L19.761 22.1184L18.706 22.8413L15.3298 20.7913V22.2047L17.5454 23.5426L15.2982 24.9021L2.11009 16.864L15.3087 8.72869L28.7078 16.7776ZM15.2876 7.27211L28.7078 15.3534V4.56395L15.3615 3.12895L2.01514 4.56395V15.3534L15.2876 7.27211Z" fill="#231F20"/>
</svg>

<svg width="115" height="41" fill="none" xmlns="http://www.w3.org/2000/svg"><path fill-rule="evenodd" clip-rule="evenodd" d="M15.52 1.06h-.17L0 2.72v28.77l15.35 9.35 15.35-9.35V2.72L15.52 1.06zm61.5 1.56h-1.93v13.11h1.93V2.63zm-36.16.01v5.14a3.98 3.98 0 0 1 2.85-1.23c.97-.06 1.92.3 2.62 1 .69.7 1.06 1.67 1.01 2.67v5.55h-1.97v-5.3c.05-.51-.1-1.03-.41-1.43a1.9 1.9 0 0 0-1.3-.72h-.3c-1.01.06-1.93.62-2.46 1.5v5.95h-2V2.63h1.96zm36.16 28.85h-1.74v-1.42a4.06 4.06 0 0 1-3.37 1.66 4.7 4.7 0 0 1-4.33-4.74 4.7 4.7 0 0 1 4.33-4.73c1.21-.04 2.37.47 3.17 1.4v-5.33h1.94v13.16zm-29.95-1.42c.2 0 .39-.04.58-.1v1.43c-.4.15-.82.23-1.25.22a1.76 1.76 0 0 1-1.76-1.08 5.04 5.04 0 0 1-3.31 1.17c-1.6 0-3.07-.9-3.07-2.75 0-2.3 2.1-3.01 3.91-3.01.77.01 1.54.1 2.29.27v-.33c0-1.07-.8-1.9-2.31-1.9-1.1 0-2.17.23-3.17.68v-1.83c1.09-.38 2.22-.58 3.37-.6 2.49 0 4.02 1.22 4.02 3.95v3.23a.6.6 0 0 0 .13.43c.1.12.23.2.39.2h.18v.02zm-6.8-1.22c.03.39.2.75.5 1 .28.26.66.38 1.04.35h.12c.95 0 1.87-.39 2.54-1.08v-1.53c-.63-.14-1.27-.21-1.91-.23-1.05 0-2.28.36-2.28 1.49zm15.75-5.9a5.18 5.18 0 0 0-2.7-.7h-.38c-1.2.05-2.35.58-3.18 1.48-.83.9-1.27 2.1-1.23 3.34v.44a4.48 4.48 0 0 0 4.72 4.23c1 .03 2-.18 2.91-.61v-1.85c-.78.45-1.67.69-2.56.7a2.88 2.88 0 0 1-2.66-1.43 3.02 3.02 0 0 1 0-3.07 2.88 2.88 0 0 1 2.66-1.43c.86 0 1.7.26 2.42.75v-1.85zm10.13 7.12c.2 0 .4-.04.58-.1v1.43c-.4.15-.82.23-1.24.22a1.76 1.76 0 0 1-1.77-1.08 5.04 5.04 0 0 1-3.3 1.17c-1.6 0-3.08-.9-3.08-2.75 0-2.3 2.11-3.01 3.92-3.01.77.01 1.53.1 2.29.27v-.33c0-1.07-.8-1.9-2.32-1.9-1.09 0-2.16.23-3.16.68v-1.83c1.08-.38 2.22-.58 3.37-.6 2.49 0 4.02 1.22 4.02 3.95v3.23a.6.6 0 0 0 .12.43c.1.12.24.2.4.2h.17v.02zm-6.3-.21c-.29-.26-.47-.62-.5-1.01h.03c0-1.13 1.16-1.49 2.28-1.49.64.02 1.28.1 1.9.23v1.53a3.54 3.54 0 0 1-2.54 1.08h-.11a1.4 1.4 0 0 1-1.05-.34zm9.48-2.92c0-1.64 1.3-2.98 2.9-2.98l.03.06c1.21 0 2.31.73 2.8 1.86v2.16a3.02 3.02 0 0 1-2.82 1.88 2.95 2.95 0 0 1-2.91-2.98zm14.02-4.68c3.5 0 4.7 2.89 4.13 5.49h-6.56c.22 1.62 1.76 2.28 3.37 2.28.96 0 1.91-.22 2.78-.64v1.73c-1 .43-2.08.64-3.16.61-2.67 0-5.01-1.53-5.01-4.77a4.57 4.57 0 0 1 1.14-3.27c.8-.89 1.9-1.41 3.08-1.46h.23v.03zm-2.48 3.93a2.42 2.42 0 0 1 2.57-2.27h.05c.62-.06 1.23.17 1.67.62.44.45.67 1.08.62 1.71h-4.91v-.06zm8.62 5.28V22.5h1.74v1.07a3.98 3.98 0 0 1 2.93-1.37 3 3 0 0 1 2.79 1.52 4.3 4.3 0 0 1 3.07-1.44 3.2 3.2 0 0 1 2.49 1.01c.64.69.97 1.63.88 2.58v5.61h-2v-5.55c.05-.46-.08-.91-.37-1.27a1.67 1.67 0 0 0-1.13-.62h-.27c-.87.05-1.67.5-2.19 1.2v6.24h-2v-5.55c.04-.46-.1-.92-.38-1.27-.29-.35-.7-.57-1.15-.61h-.21c-.94.08-1.8.6-2.33 1.4v6.07h-1.83l-.04-.06zm24.49-8.99h-2l-2.66 6.8-3.01-6.78h-2.11l4.22 9.06-.18.45c-.52 1.36-1.24 2.05-2.19 2.05-.3 0-.6-.04-.9-.13v1.7c.39.1.78.14 1.17.15 1.33 0 2.58-.75 3.53-3.09l4.13-10.2zM52.68 6.8V3.55l-1.95.46v2.72h-1.59V8.5h1.65V13c-.07.83.23 1.64.82 2.21.59.58 1.4.85 2.2.75.79 0 1.58-.12 2.33-.38v-1.73c-.57.24-1.17.36-1.78.36-1.14 0-1.67-.39-1.67-1.58v-4.1h3.16V6.78H52.7zm5.7 8.96v-9h1.76v1.08a3.98 3.98 0 0 1 2.92-1.38A3 3 0 0 1 65.8 7.9a4.3 4.3 0 0 1 3.07-1.44 3.2 3.2 0 0 1 2.5 1.05c.63.7.94 1.66.84 2.62v5.62h-2V10.2c.04-.46-.1-.91-.37-1.27a1.67 1.67 0 0 0-1.14-.62h-.24c-.86.05-1.66.5-2.18 1.2v6.24h-2V10.2c.04-.46-.1-.91-.37-1.27a1.67 1.67 0 0 0-1.13-.62h-.25c-.94.08-1.8.6-2.33 1.39v6.07H58.4zM28.7 30.3v.02-.02zm0-11.98V30.3l-13.35 8.13L2 30.32v-11.8L15.3 26.6v1.42l-9.1-5.5v1.41l9.15 5.62v1.5L6.19 25.5v1.45l9.16 5.62 9.23-5.65v-6.1l4.12-2.5zm0-1.54l-3.66 2.16-1.7 1.07-8.03-4.93v1.42l6.85 4.23-.15.1-1.06.58-5.66-3.46v1.45l4.47 2.72-1.05.72-3.38-2.05v1.41l2.22 1.34-2.25 1.36L2.1 16.86l13.2-8.13 13.4 8.05zM15.3 7.28l13.42 8.07V4.56L15.36 3.13 2.02 4.56v10.8l13.27-8.09z" fill="#231F20"/></svg>
